X: 129
T:The Household Brigade
% Nottingham Music Database
S:Play A B A C, via Phil Rowe
M:6/8
K:G
"(D7)"d3 ||"G"\

gdB GBd|g2f a2g|"Am"f2e c2A|E3 Ee^d|"D"dcA FAc|
"D"f3 e3|"D7"d^cd ^dec|"G"Bc^c "D7"def|"G"gdB GBd|g2f a2g|
"Am"f2e c2A|E3 Ee^d|"D"dcA FAc|"D"f3 e3|"D7"d^cd ^def|"G"g3 g3||
"G"\

Bc^c d2e|d2B G2G|"C"e^de c2e|"G"d3 d3|"G"Bc^c d2e|"G"d2B G2B|
"A7"A2g f2e|"D7"fed cBA|"G"Bc^c d2e|d2B G2G|"C"e^de c2e|
"G"d3 d3|"C"egc' "G"b2a|"G"dgb "D7"a2g|"D7"fed cBA|"G"G3 G2d||
"C"\

gdB GBd|g2f a2g|"Am"f2e c2A|E3 Ee^d|"D"dcA FAc|
"D"f3 e3|"D7"d^cd ^dec|"G"Bc^c "D7"def|"G"gdB GBd|g2f a2g|
"Am"f2e c2A|E3 Ee^d|"D"dcA FAc|"D"f3 e3|"D7"d^cd ^def|"G"g3 g3||
"G"\

E3 -EDC|E3 E3|"G7"F3 -FED|F3 -FEF|"C"Ged cBA|
"G7"B^AB f2B|^A2B f2B|"C"A^GA edc|"C"E3 -EDC|E3 E3|"G7"F3 -FED|
F3 -FEF|"C"Ged cBA|"G7"B^AB f2B|B2f e2d|"C"c3 ||


